src/assets/img/watch-later.svg

<svg
  width="17"
  height="19"
  viewBox="0 0 17 19"
  fill="none"
  xmlns="http://www.w3.org/2000/svg">
  <path
  opacity="0.4"
  fill-rule="evenodd"
  clip-rule="evenodd"
  d="M12.7263 16.7342C11.4999 17.5194 10.0515 17.973 8.5 17.973C6.94846 17.973 5.50008 17.5194 4.27374 16.7342L3.36555 18.3497C3.08967 18.8405 2.48163 19.0104 2 18.7248C1.52171 18.4412 1.35565 17.817 1.6335 17.3227C1.6335 17.3227 2.68265 15.4627 2.70994 15.4264C1.3407 13.9519 0.5 11.9552 0.5 9.75676C0.5 8.53312 0.760452 7.37196 1.22753 6.32856C0.476253 5.66926 0 4.68905 0 3.59459C0 1.60935 1.567 0 3.5 0C4.79331 0 5.92278 0.720433 6.52869 1.79186C7.15928 1.62774 7.81973 1.54054 8.5 1.54054C9.11512 1.54054 9.71402 1.61184 10.2893 1.74683C10.9011 0.700295 12.017 0 13.2921 0C15.2251 0 16.7921 1.60935 16.7921 3.59459C16.7921 4.61644 16.3769 5.5387 15.7104 6.19316C16.2164 7.27113 16.5 8.47993 16.5 9.75676C16.5 11.9552 15.6593 13.9519 14.2901 15.4264C14.3173 15.4627 15.3665 17.3227 15.3665 17.3227C15.6443 17.817 15.4783 18.4412 15 18.7248C14.5184 19.0104 13.9103 18.8405 13.6344 18.3497L12.7263 16.7342ZM7.5 5.64845C7.5 5.08135 7.94386 4.62162 8.5 4.62162C9.05229 4.62162 9.5 5.07733 9.5 5.64845V9.75676C9.5 10.324 9.05665 10.7838 8.50095 10.7838H6.49905C5.94729 10.7838 5.5 10.3279 5.5 9.75676C5.5 9.18955 5.94335 8.72973 6.49905 8.72973H7.5V5.64845ZM2 3.59459C2 2.74378 2.67157 2.05405 3.5 2.05405C3.93928 2.05405 4.3426 2.24978 4.62052 2.56955C3.73645 3.07397 2.95519 3.74545 2.3172 4.54247C2.11715 4.27879 2 3.9482 2 3.59459ZM14.7921 3.59459C14.7921 2.74378 14.1205 2.05405 13.2921 2.05405C12.8889 2.05405 12.5161 2.21892 12.2426 2.49324C13.1305 2.9768 13.9191 3.62706 14.569 4.4034C14.7112 4.1665 14.7921 3.8885 14.7921 3.59459ZM8.5 15.9189C5.18629 15.9189 2.5 13.16 2.5 9.75676C2.5 6.35349 5.18629 3.59459 8.5 3.59459C11.8137 3.59459 14.5 6.35349 14.5 9.75676C14.5 13.16 11.8137 15.9189 8.5 15.9189Z"
  fill="white"/>
</svg>

<svg
  width="17"
  height="19"
  fill="none"
  xmlns="http://www.w3.org/2000/svg">
  <path
  opacity=".4"
  fill-rule="evenodd"
  clip-rule="evenodd"
  d="M12.726 16.734A7.809 7.809 0 0 1 8.5 17.973c-1.552 0-3-.454-4.226-1.239l-.908 1.616A.983.983 0 0 1 2 18.725a1.04 1.04 0 0 1-.367-1.402s1.05-1.86 1.077-1.897A8.307 8.307 0 0 1 .5 9.756c0-1.223.26-2.384.728-3.427A3.627 3.627 0 0 1 0 3.595C0 1.609 1.567 0 3.5 0c1.293 0 2.423.72 3.029 1.792a7.816 7.816 0 0 1 3.76-.045C10.901.7 12.017 0 13.292 0c1.933 0 3.5 1.61 3.5 3.595a3.631 3.631 0 0 1-1.082 2.598 8.368 8.368 0 0 1 .79 3.564c0 2.198-.84 4.195-2.21 5.67.027.036 1.077 1.896 1.077 1.896A1.04 1.04 0 0 1 15 18.725a.983.983 0 0 1-1.366-.375l-.908-1.616ZM7.5 5.648c0-.567.444-1.026 1-1.026.552 0 1 .455 1 1.026v4.109a1.01 1.01 0 0 1-1 1.027h-2c-.553 0-1-.456-1-1.027a1.01 1.01 0 0 1 1-1.027h1V5.648ZM2 3.595c0-.851.672-1.541 1.5-1.541.44 0 .843.196 1.12.516a8.091 8.091 0 0 0-2.303 1.972A1.566 1.566 0 0 1 2 3.595Zm12.792 0c0-.851-.671-1.541-1.5-1.541a1.48 1.48 0 0 0-1.05.44 8.076 8.076 0 0 1 2.327 1.91 1.57 1.57 0 0 0 .223-.81ZM8.5 15.919c-3.314 0-6-2.759-6-6.162 0-3.404 2.686-6.162 6-6.162s6 2.758 6 6.162c0 3.403-2.686 6.162-6 6.162Z"
  fill="#fff"/>
</svg>
